boxicons/svg/solid/bxs-coin.svg

<svg xmlns="http://www.w3.org/2000/svg" width="24" height="24" viewBox="0 0 24 24"><path d="M12 5C7.031 5 2 6.546 2 9.5S7.031 14 12 14c4.97 0 10-1.546 10-4.5S16.97 5 12 5zm-5 9.938v3c1.237.299 2.605.482 4 .541v-3a21.166 21.166 0 0 1-4-.541zm6 .54v3a20.994 20.994 0 0 0 4-.541v-3a20.994 20.994 0 0 1-4 .541zm6-1.181v3c1.801-.755 3-1.857 3-3.297v-3c0 1.44-1.199 2.542-3 3.297zm-14 3v-3C3.2 13.542 2 12.439 2 11v3c0 1.439 1.2 2.542 3 3.297z"/></svg>

<svg xmlns="http://www.w3.org/2000/svg" width="24" height="24" viewBox="0 0 24 24"><path d="M12 5C7.031 5 2 6.546 2 9.5S7.031 14 12 14c4.97 0 10-1.546 10-4.5S16.97 5 12 5zM7 14.938v3c1.237.299 2.605.482 4 .541v-3C9.605 15.419 8.237 15.236 7 14.938zM13 15.478v3c1.395-.059 2.764-.242 4-.541v-3C15.764 15.236 14.395 15.419 13 15.478zM19 14.297v3c1.801-.755 3-1.857 3-3.297v-3C22 12.44 20.801 13.542 19 14.297zM5 17.297v-3C3.2 13.542 2 12.439 2 11v3C2 15.439 3.2 16.542 5 17.297z"/></svg>
